assets/media/img/icons/edit.svg

<?xml version="1.0" standalone="no"?><!-- Generator: Gravit.io --><svg xmlns="http://www.w3.org/2000/svg" xmlns:xlink="http://www.w3.org/1999/xlink" style="isolation:isolate" viewBox="0 0 16 16" width="16" height="16"><defs><clipPath id="_clipPath_D4CsNiN6XHc9BWvCTHnCNAZ8t1jRtUHi"><rect width="16" height="16"/></clipPath></defs><g clip-path="url(#_clipPath_D4CsNiN6XHc9BWvCTHnCNAZ8t1jRtUHi)"><path d=" M 2 11.5 L 2 14 L 4.5 14 L 11.873 6.627 L 9.373 4.127 L 2 11.5 Z  M 13.807 4.693 C 14.067 4.433 14.067 4.013 13.807 3.753 L 12.247 2.193 C 11.987 1.933 11.567 1.933 11.307 2.193 L 10.087 3.413 L 12.587 5.913 L 13.807 4.693 Z " fill="rgb(255,255,255)"/><path d=" M 0 0 L 16 0 L 16 16 L 0 16 L 0 0 Z " fill="none"/></g></svg>

<svg xmlns="http://www.w3.org/2000/svg" style="isolation:isolate" width="16" height="16"><defs><clipPath id="a"><path d="M0 0h16v16H0z"/></clipPath></defs><g clip-path="url(#a)"><path fill="#2A2D34" d="M2 11.5V14h2.5l7.4-7.4-2.5-2.5L2 11.5zm11.8-6.8c.3-.3.3-.7 0-1l-1.6-1.5a.7.7 0 0 0-.9 0l-1.2 1.2L12.6 6l1.2-1.2z"/><path fill="none" d="M0 0h16v16H0V0z"/></g></svg>
